public/images/icons/re-icons/re-download.svg

<svg width="14" height="19" viewBox="0 0 14 19" fill="none" xmlns="http://www.w3.org/2000/svg">
<g id="Group 3098">
<path id="Rectangle 1771 (Stroke)" fill-rule="evenodd" clip-rule="evenodd" d="M1.93971 0.500002C1.00661 0.49855 0.249418 1.25457 0.249418 2.18766V16.8123C0.249418 17.7444 1.00501 18.5 1.93708 18.5H12.0631C12.9951 18.5 13.7507 17.7444 13.7507 16.8123V5.6798L8.8182 0.510703L1.93971 0.500002ZM1.37453 2.18766C1.37453 1.87663 1.62693 1.62463 1.93796 1.62511L8.01452 1.63456V6.46769H12.6256V16.8123C12.6256 17.123 12.3738 17.3749 12.0631 17.3749H1.93708C1.62639 17.3749 1.37453 17.123 1.37453 16.8123V2.18766ZM11.8738 5.34258H9.13963V2.47729L11.8738 5.34258Z" fill="#0084FF"/>
<path id="Vector 862 (Stroke)" fill-rule="evenodd" clip-rule="evenodd" d="M7.00333 7.24902C7.31402 7.24902 7.56589 7.50089 7.56589 7.81158V13.2029L8.8527 11.9145C9.07226 11.6947 9.42844 11.6944 9.64827 11.914C9.8681 12.1335 9.86833 12.4897 9.64877 12.7096L7.21583 15.1455C7.09875 15.2628 6.9088 15.2629 6.79157 15.1458L4.35276 12.7101C4.13293 12.4905 4.13271 12.1343 4.35226 11.9145C4.57182 11.6946 4.92801 11.6944 5.14784 11.914L6.44078 13.2053V7.81158C6.44078 7.50089 6.69264 7.24902 7.00333 7.24902Z" fill="#0084FF"/>
</g>
</svg>

<svg fill="none" viewBox="0 0 14 19"><path fill="#0084FF" fill-rule="evenodd" d="M1.94.5A1.688 1.688 0 00.25 2.188v14.624c0 .932.755 1.688 1.687 1.688h10.126c.932 0 1.688-.756 1.688-1.688V5.68L8.818.51 1.94.5zm-.565 1.688c0-.311.252-.563.563-.563l6.077.01v4.833h4.61v10.344a.562.562 0 01-.562.563H1.937a.563.563 0 01-.562-.563V2.188zm10.499 3.155H9.14V2.477l2.734 2.866z" clip-rule="evenodd"/><path fill="#0084FF" fill-rule="evenodd" d="M7.003 7.249c.311 0 .563.252.563.563v5.39l1.287-1.287a.563.563 0 11.796.795l-2.433 2.435a.3.3 0 01-.424 0l-2.44-2.435a.563.563 0 01.796-.796l1.293 1.291V7.812c0-.311.252-.563.562-.563z" clip-rule="evenodd"/></svg>
